X: 2005
T: Yolun Bulamam Yüzün Göremem
C: Denizoğlu Ali Bey
O: Turkey
F: http://compmusic.upf.edu/node/140
N: sehnazbuselik--sarki--semai--yolun_bulamam--denizoglu_ali_bey
N: makam= sehnazbuselik
N: form= sarki
N: usul= semai = 3/4
M: 3/4
L: 1/16
K: C    
Q: 1/4=120
%%MIDI tuningsystem comma53
a12  | e12  | d2f2 e2d2 c2d2  | e2d2 c2B2 A2^G2  | \
w:  ARANAĞME  |   |   |   | 
A4 c4 e4  | f4 ^g4 a4  | a2c'2 b2a2 ^g2f2  | 
w:   |   |   | 
e12  | d4 (3a2g2^f2 g4  | c4 (3g2f2e2 f4  | \
w:   |   |   | 
B4 (3f2e2d2 e4  | c4 B4 A4  | a2g2 f2e2 d2e2  | 
w:   |   |   | 
f2e2 d2c2 B2c2  | e2d2 c2B2 A2^G2  | A12  | a12  | e12  | \
w:   |   |   |  ARANAĞME  |   | 
d2f2 e2d2 c2d2  | 
w:   | 
e2d2 c2B2 A2^G2  | A4 c4 e4  | f4 ^g4 a4  | \
w:   |   |   | 
a2c'2 b2a2 ^g2f2  | e12  | d4 (3a2g2^f2 g4  | 
w:   |   |   | 
c4 (3g2f2e2 f4  | B4 (3f2e2d2 e4  | c4 B4 A4  | \
w:   |   |   | 
a2g2 f2e2 d2e2  | f2e2 d2c2 B2c2  | 
w:   |   | 
e2d2 c2B2 A2^G2  | A12  | a12  | e12  | d2f2 e2d2 c2B2  | \
w:   |   |  Yo  |  lun   |  bu *  la  | 
A8 z4  | b12  | ^g8 e4  | f2e2 f4 ^g4  | 
w:  mam    |  Yü  |  zün   |  gö *  *  re  | 
a12  | a12  | e12  | d2f2 e2d2 c2B2  | A8 z4  | b12  | \
w:  mem    |  Yo  |  lun   |  bu *  la  |  mam    |  Yü  | 
^g8 e4  | f2e2 f4 ^g4  | e8 z4  | e8 ^g4  | 
w:  zün   |  gö *  *  re  |  mem    |  Kar  | 
f2^g2 a4 g2f2  | e4 e2f2 e2d2  | c2d2 e4 z4  | \
w:  şı   |  du ra  |  mam    | 
c2d2 e4 d2c2  | B2c2 d4 c2B2  | 
w:  Gön  |  lüm   | 
A2B2 c2B2 A2^G2  | A2B2 c2d2 e4  | e8 ^g4  | \
w:  a *  la  |  mam    |  Kar  | 
f2^g2 a4 g2f2  | e4 e2f2 e2d2  | 
w:  şı   |  du ra  | 
c2d2 e4 z4  | c2d2 e4 d2c2  | B2c2 d4 c2B2  | \
w:  mam    |  Gön  |  lüm   | 
A2B2 c2B2 A2^G2  | A8 z4  | 
w:  a *  la  |  mam    | 
a12  | e12  | d2f2 e2d2 c2d2  | e2d2 c2B2 A2^G2  | \
w:  ARANAĞME  |   |   |   | 
A4 c4 e4  | f4 ^g4 a4  | a2c'2 b2a2 ^g2f2  | 
w:   |   |   | 
e12  | d4 (3a2g2^f2 g4  | c4 (3g2f2e2 f4  | \
w:   |   |   | 
B4 (3f2e2d2 e4  | c4 B4 A4  | a2g2 f2e2 d2e2  | 
w:   |   |   | 
f2e2 d2c2 B2c2  | e2d2 c2B2 A2^G2  | A12  | a12  | e12  | \
w:   |   |   |  ARANAĞME  |   | 
d2f2 e2d2 c2d2  | 
w:   | 
e2d2 c2B2 A2^G2  | A4 c4 e4  | f4 ^g4 a4  | \
w:   |   |   | 
a2c'2 b2a2 ^g2f2  | e12  | d4 (3a2g2^f2 g4  | 
w:   |   |   | 
c4 (3g2f2e2 f4  | B4 (3f2e2d2 e4  | c4 B4 A4  | \
w:   |   |   | 
a2g2 f2e2 d2e2  | f2e2 d2c2 B2c2  | 
w:   |   | 
e2d2 c2B2 A2^G2  | A12  | a12  | e12  | d2f2 e2d2 c2B2  | \
w:   |   |  Yo  |  lun   |  bu *  la  | 
A8 z4  | b12  | ^g8 e4  | f2e2 f4 ^g4  | 
w:  mam    |  Yü  |  zün   |  gö *  *  re  | 
a12  | a12  | e12  | d2f2 e2d2 c2B2  | A8 z4  | b12  | \
w:  mem    |  Yo  |  lun   |  bu *  la  |  mam    |  Yü  | 
^g8 e4  | f2e2 f4 ^g4  | e8 z4  | e8 ^g4  | 
w:  zün   |  gö *  *  re  |  mem    |  Kar  | 
f2^g2 a4 g2f2  | e4 e2f2 e2d2  | c2d2 e4 z4  | \
w:  şı   |  du ra  |  mam    | 
c2d2 e4 d2c2  | B2c2 d4 c2B2  | 
w:  Gön  |  lüm   | 
A2B2 c2B2 A2^G2  | A2B2 c2d2 e4  | e8 ^g4  | \
w:  a *  la  |  mam    |  Kar  | 
f2^g2 a4 g2f2  | e4 e2f2 e2d2  | 
w:  şı   |  du ra  | 
c2d2 e4 z4  | c2d2 e4 d2c2  | B2c2 d4 c2B2  | \
w:  mam    |  Gön  |  lüm   | 
A2B2 c2B2 A2^G2  | A8 z4  | 
w:  a *  la  |  mam    | 
|


